img/favicon/favicon152.svg

<svg width="66" height="94" viewBox="0 0 66 94" fill="none" xmlns="http://www.w3.org/2000/svg">
<path d="M64.571 52.6418C64.2367 43.7524 62.8999 34.8629 62.8999 25.9734C62.8999 18.7301 64.2367 11.1576 61.5631 4.24359C61.5631 3.58511 61.8973 2.59739 61.8973 1.93891C62.5657 -1.68273 50.8683 0.292711 49.1972 3.58511C48.1946 4.57283 47.5262 5.56055 47.8604 6.87751C47.8604 7.20675 48.1946 7.53599 48.1946 7.86523C45.8551 18.4009 42.8472 28.9366 39.5051 39.143C38.1683 43.0939 36.4972 47.0448 35.1604 50.9957C33.1551 47.374 31.1498 43.7524 29.4788 39.8015C24.7998 28.2781 20.7893 16.7547 15.1077 5.88979C15.7761 0.951187 4.41295 1.28043 2.07347 5.88979C-0.600217 11.4869 -0.266004 17.0839 0.736629 23.3395C1.73926 30.2535 2.07347 36.8383 2.07347 43.7524C2.07347 56.922 3.41032 70.0916 3.41032 83.2612C2.07347 84.5781 1.73926 86.2243 3.0761 87.8705C3.74453 88.529 4.41295 89.1875 5.08137 89.846C8.08927 92.1507 16.7788 90.1752 16.7788 85.5658C16.7788 71.7378 15.7761 58.2389 15.4419 44.4109C15.4419 43.0939 15.4419 41.7769 15.4419 40.46C15.7761 40.7892 15.7761 41.4477 16.1103 41.7769C18.1156 47.0448 20.4551 52.3126 23.463 57.2512C26.4709 62.1898 27.8077 67.4577 29.4788 72.7255C28.8104 73.384 28.4761 74.3717 28.8104 75.0302C28.8104 75.6887 29.1446 76.0179 29.813 76.3471C31.8183 78.3226 36.163 77.3348 38.1683 76.3471C39.1709 76.0179 40.1735 75.3594 40.842 75.0302C41.8446 74.3717 43.8499 72.7255 43.1814 71.0793C43.1814 70.7501 42.8472 70.4208 42.8472 70.0916C44.5183 65.8115 45.1867 61.5313 46.1893 56.922C47.192 52.3126 48.863 47.7033 50.5341 43.0939C50.8683 45.0693 50.8683 47.374 51.2025 49.3495C51.8709 57.9097 51.2025 66.1407 51.2025 74.7009C51.2025 77.6641 51.5367 79.9688 51.8709 82.9319C52.2051 83.9196 53.2078 88.8582 52.8736 89.1875C50.8683 91.1629 51.5367 93.4676 54.2104 93.7968C57.2183 94.4553 61.2288 93.4676 63.5683 91.4922C67.5789 87.8705 65.5736 81.9442 64.9052 77.3348C62.8999 69.4331 64.571 60.5436 64.571 52.6418Z" fill="black"/>
</svg>

<svg width="66" height="94" fill="none" xmlns="http://www.w3.org/2000/svg"><path d="M64.571 52.642c-.334-8.89-1.671-17.78-1.671-26.669 0-7.243 1.337-14.815-1.337-21.73 0-.658.334-1.646.334-2.304.669-3.622-11.029-1.646-12.7 1.646-1.002.988-1.67 1.976-1.337 3.293 0 .329.335.658.335.987-2.34 10.536-5.348 21.072-8.69 31.278-1.337 3.95-3.008 7.902-4.345 11.853-2.005-3.622-4.01-7.244-5.681-11.195-4.68-11.523-8.69-23.046-14.371-33.911.668-4.939-10.695-4.61-13.035 0C-.6 11.487-.266 17.084.737 23.34c1.002 6.913 1.336 13.498 1.336 20.412 0 13.17 1.337 26.34 1.337 39.51-1.337 1.316-1.67 2.962-.334 4.609l2.005 1.975c3.008 2.305 11.698.33 11.698-4.28 0-13.828-1.003-27.327-1.337-41.155V40.46c.334.33.334.988.668 1.317 2.006 5.268 4.345 10.536 7.353 15.474 3.008 4.939 4.345 10.207 6.016 15.474-.669.659-1.003 1.647-.669 2.305 0 .659.335.988 1.003 1.317 2.005 1.976 6.35.988 8.355 0 1.003-.33 2.005-.988 2.674-1.317 1.003-.658 3.008-2.305 2.34-3.95 0-.33-.335-.66-.335-.988 1.671-4.28 2.34-8.56 3.342-13.17 1.003-4.61 2.674-9.219 4.345-13.828.334 1.975.334 4.28.669 6.255.668 8.56 0 16.792 0 25.352 0 2.963.334 5.268.668 8.23.334.989 1.337 5.927 1.003 6.257-2.006 1.975-1.337 4.28 1.336 4.609 3.008.658 7.019-.33 9.358-2.305 4.01-3.621 2.006-9.548 1.337-14.157-2.005-7.902-.334-16.791-.334-24.693z" fill="#000"/></svg>
